dist/img/design.svg

<svg width="32" height="32" viewBox="0 0 32 32" fill="none" xmlns="http://www.w3.org/2000/svg">
<path d="M11.6531 0.879883C11.672 0.879883 11.6909 0.879883 11.7098 0.879883C14.5661 0.879883 16.7443 2.07767 18.1547 3.79048C19.5651 5.50329 20.2337 7.69569 20.2337 9.76288C20.2337 12.2482 19.2202 13.7555 18.3059 14.9982C18.0059 15.4045 17.7224 15.7825 17.4743 16.17C17.7743 16.0684 18.0862 15.9999 18.4193 15.9999C19.2367 15.9999 19.9715 16.3377 20.5172 16.8693C20.6306 16.4984 20.7936 16.1393 20.9897 15.8109C21.5496 14.8777 22.5537 14.1855 23.8625 14.1855C25.6155 14.1855 26.8865 15.5864 26.8865 17.2095C26.8865 17.5426 26.6148 17.8143 26.2817 17.8143C25.6155 17.8143 25.4217 18.0198 25.1477 18.5325C24.8736 19.0451 24.6846 19.8649 24.3539 20.7438C24.0279 21.6085 23.5365 22.5416 22.634 23.2575H23.2577C23.5908 23.2575 23.8625 23.5292 23.8625 23.8623V26.2815C23.8625 26.6146 23.5908 26.8863 23.2577 26.8863H22.6529V30.5151C22.6529 30.8482 22.3812 31.1199 22.0481 31.1199H11.1617C10.8286 31.1199 10.5569 30.8482 10.5569 30.5151V26.8863H9.9521C9.61898 26.8863 9.34729 26.6146 9.34729 26.2815V23.8623C9.34493 23.5481 9.58354 23.2858 9.89539 23.2575C9.91429 23.2575 11.4074 23.2575 11.4263 23.2575C11.2964 23.1937 11.157 23.1394 11.0294 23.0685C8.68816 21.7786 6.92809 19.2365 6.92809 14.7903C6.92809 11.908 6.98243 9.83376 6.79579 8.30758C6.60916 6.78141 6.23116 5.84349 5.30269 4.94338C5.13259 4.78037 5.07117 4.53231 5.14913 4.30787C5.22473 4.0858 5.42554 3.92751 5.66179 3.90388C5.68069 3.90388 5.69959 3.90388 5.71849 3.90388C6.86431 3.90388 8.56767 4.21573 10.0277 5.09458C10.89 5.61433 11.6625 6.37033 12.1067 7.36258C12.591 5.61197 12.6123 4.01256 11.1995 1.80598C11.0885 1.63588 11.0696 1.42326 11.1499 1.23662C11.2302 1.04998 11.3979 0.91532 11.5964 0.879883C11.6153 0.879883 11.6342 0.879883 11.6531 0.879883V0.879883ZM12.995 8.57218C12.2555 10.7977 11.1617 12.9712 11.1617 15.9999C11.1617 19.9594 14.4597 23.2575 18.4193 23.2575C18.4524 23.2575 18.4807 23.2575 18.5138 23.2575C20.177 23.2433 21.1881 22.8677 21.8591 22.3503C22.5442 21.8211 22.9246 21.1123 23.2199 20.328C23.5152 19.5436 23.6995 18.7002 24.0893 17.9655C24.3728 17.4339 24.9044 17.0536 25.5446 16.8315C25.3839 16.0164 24.8453 15.3951 23.8625 15.3951C22.934 15.3951 22.4214 15.7613 22.0292 16.4157C21.637 17.0701 21.4433 18.0411 21.4433 19.0239C21.4433 20.6871 20.0825 22.0479 18.4193 22.0479C16.7561 22.0479 15.3953 20.6871 15.3953 19.0239C15.3953 18.9199 15.4047 18.8231 15.4142 18.7215C15.5063 16.7252 16.4679 15.4423 17.3231 14.28C18.2232 13.0586 19.0241 11.934 19.0241 9.76288C19.0241 7.96029 18.4335 6.02777 17.2286 4.56538C16.1962 3.3109 14.6984 2.43913 12.7115 2.20288C13.8526 4.57483 13.64 6.63021 12.995 8.57218ZM8.00539 8.17528C8.21093 9.85502 8.13769 11.9269 8.13769 14.7903C8.13769 18.9317 9.61662 20.9092 11.6153 22.0101C12.1327 22.2936 12.6973 22.5204 13.2785 22.6905C11.268 21.1336 9.9521 18.7026 9.9521 15.9999C9.9521 13.4815 10.6396 11.5088 11.2751 9.78178C11.2775 9.77706 11.2727 9.76761 11.2751 9.76288C11.2775 9.72508 11.2845 9.68728 11.294 9.64948C11.4546 7.88233 10.6041 6.85701 9.40399 6.13408C8.64091 5.6734 7.78332 5.43006 6.98479 5.28358C7.49273 6.127 7.86837 7.05073 8.00539 8.17528ZM16.6049 19.0239C16.6049 20.0327 17.4105 20.8383 18.4193 20.8383C19.4281 20.8383 20.2337 20.0327 20.2337 19.0239C20.2337 18.0151 19.4281 17.2095 18.4193 17.2095C17.4105 17.2095 16.6049 18.0151 16.6049 19.0239ZM10.5569 25.6767H22.6529V24.4671H10.5569V25.6767ZM11.7665 29.9103H21.4433V26.8863H11.7665V29.9103Z" fill="white"/>
</svg>

<svg width="32" height="32" fill="none" xmlns="http://www.w3.org/2000/svg"><path d="M11.653.88h.057c2.856 0 5.034 1.198 6.445 2.91 1.41 1.713 2.079 3.906 2.079 5.973 0 2.485-1.014 3.992-1.928 5.235-.3.407-.584.785-.832 1.172.3-.102.612-.17.945-.17a3 3 0 012.098.87c.114-.372.277-.73.473-1.06a3.291 3.291 0 012.873-1.625c1.753 0 3.024 1.401 3.024 3.024a.606.606 0 01-.605.605c-.666 0-.86.206-1.134.718-.274.513-.463 1.333-.794 2.212-.326.864-.817 1.798-1.72 2.514h.624c.333 0 .605.271.605.604v2.42a.606.606 0 01-.605.604h-.605v3.63a.606.606 0 01-.605.604H11.162a.606.606 0 01-.605-.605v-3.629h-.605a.606.606 0 01-.605-.604v-2.42a.602.602 0 01.548-.604h1.531c-.13-.064-.269-.119-.397-.19-2.34-1.29-4.1-3.832-4.1-8.278 0-2.882.053-4.956-.133-6.482-.187-1.527-.565-2.465-1.493-3.365a.605.605 0 01.359-1.04h.056c1.146 0 2.85.313 4.31 1.192.862.52 1.634 1.275 2.079 2.268.484-1.751.505-3.35-.907-5.557a.603.603 0 01.396-.926h.057zm1.342 7.692c-.74 2.226-1.833 4.4-1.833 7.428 0 3.96 3.298 7.258 7.257 7.258h.095c1.663-.015 2.674-.39 3.345-.908.685-.529 1.066-1.238 1.36-2.022.296-.784.48-1.628.87-2.363.284-.531.815-.911 1.456-1.134-.161-.815-.7-1.436-1.683-1.436-.928 0-1.44.366-1.833 1.02-.392.655-.586 1.626-.586 2.609a3.033 3.033 0 01-3.024 3.024 3.033 3.033 0 01-3.024-3.024c0-.104.01-.2.02-.303.091-1.996 1.053-3.279 1.908-4.441.9-1.221 1.701-2.346 1.701-4.517 0-1.803-.59-3.735-1.795-5.198-1.033-1.254-2.53-2.126-4.518-2.362 1.142 2.372.929 4.427.284 6.37zm-4.99-.397c.206 1.68.133 3.752.133 6.615 0 4.142 1.479 6.12 3.477 7.22a8.36 8.36 0 001.663.68c-2.01-1.556-3.326-3.987-3.326-6.69 0-2.518.688-4.491 1.323-6.218.002-.005-.002-.014 0-.02a.63.63 0 01.019-.113c.16-1.767-.69-2.792-1.89-3.515-.763-.46-1.62-.704-2.42-.85.509.843.884 1.767 1.021 2.891zm8.6 10.849c0 1.009.805 1.814 1.814 1.814a1.806 1.806 0 001.815-1.814 1.806 1.806 0 00-1.815-1.815 1.806 1.806 0 00-1.814 1.815zm-6.048 6.653h12.096v-1.21H10.557v1.21zm1.21 4.233h9.676v-3.024h-9.677v3.024z" fill="#fff"/></svg>
